icon/cg/card-clubs.svg

<svg viewBox="0 0 24 24" fill="none" xmlns="http://www.w3.org/2000/svg" height="1em" width="1em">
  <path d="M12 11C13.1046 11 14 10.1046 14 9C14 7.89543 13.1046 7 12 7C10.8954 7 10 7.89543 10 9C10 10.1046 10.8954 11 12 11Z" fill="currentColor"/>
  <path d="M11 13C11 14.1046 10.1046 15 9 15C7.89543 15 7 14.1046 7 13C7 11.8954 7.89543 11 9 11C10.1046 11 11 11.8954 11 13Z" fill="currentColor"/>
  <path d="M15 15C16.1046 15 17 14.1046 17 13C17 11.8954 16.1046 11 15 11C13.8954 11 13 11.8954 13 13C13 14.1046 13.8954 15 15 15Z" fill="currentColor"/>
  <path fill-rule="evenodd" clip-rule="evenodd" d="M3 4C3 2.34315 4.34315 1 6 1H18C19.6569 1 21 2.34315 21 4V20C21 21.6569 19.6569 23 18 23H6C4.34315 23 3 21.6569 3 20V4ZM6 3H18C18.5523 3 19 3.44772 19 4V20C19 20.5523 18.5523 21 18 21H6C5.44772 21 5 20.5523 5 20V4C5 3.44772 5.44772 3 6 3Z" fill="currentColor"/>
</svg>

<svg width="24" height="24" fill="none" xmlns="http://www.w3.org/2000/svg"><path d="M12 11a2 2 0 1 0 0-4 2 2 0 0 0 0 4ZM11 13a2 2 0 1 1-4 0 2 2 0 0 1 4 0ZM15 15a2 2 0 1 0 0-4 2 2 0 0 0 0 4Z" fill="currentColor"/><path fill-rule="evenodd" clip-rule="evenodd" d="M3 4a3 3 0 0 1 3-3h12a3 3 0 0 1 3 3v16a3 3 0 0 1-3 3H6a3 3 0 0 1-3-3V4Zm3-1h12a1 1 0 0 1 1 1v16a1 1 0 0 1-1 1H6a1 1 0 0 1-1-1V4a1 1 0 0 1 1-1Z" fill="currentColor"/></svg>
